X: 20461
T: PADDY O CARROL
%R: jig
B: "Edinburgh Repository of Music" v.2 p.46 #1
F: http://digital.nls.uk/special-collections-of-printed-music/pageturner.cfm?id=87776133
Z: 2015 John Chambers <jc:trillian.mit.edu>
M: 6/8
L: 1/8
K: D
(A/G/) |\
(FD).D (ED).D | (FG).F (FE).D | AFF dFF | (EF)E E2(A/G/) |\
FDD EDD | (FG).F (FE).D | AFF dFF | DED "_Fine."D2 H:|
(a/g/) |\
fdd edc | (Bd).B (AG).F | (fd).a (ec).a | (dB)^g a2(a/=g/) |\
(fd).d (edc) | (Bd).B (AG)F | AFF dFF | (EF).E "_D.C."E2 |]

%%sep 2 1 500
%%sep 1 1 500

